icons/skull-fill.svg

<svg viewBox="0 0 24 24" fill="currentColor" xmlns="http://www.w3.org/2000/svg">
    <path d="M18 18V21C18 21.5523 17.5523 22 17 22H7C6.44772 22 6 21.5523 6 21V18H3C2.44772 18 2 17.5523 2 17V12C2 6.47715 6.47715 2 12 2C17.5228 2 22 6.47715 22 12V17C22 17.5523 21.5523 18 21 18H18ZM7.5 14C8.32843 14 9 13.3284 9 12.5C9 11.6716 8.32843 11 7.5 11C6.67157 11 6 11.6716 6 12.5C6 13.3284 6.67157 14 7.5 14ZM16.5 14C17.3284 14 18 13.3284 18 12.5C18 11.6716 17.3284 11 16.5 11C15.6716 11 15 11.6716 15 12.5C15 13.3284 15.6716 14 16.5 14Z"/>
</svg>

<svg xmlns="http://www.w3.org/2000/svg" viewBox="0 0 24 24">
    <g>
        <path fill="none" d="M0 0h24v24H0z"/>
        <path d="M18 18v3a1 1 0 0 1-1 1H7a1 1 0 0 1-1-1v-3H3a1 1 0 0 1-1-1v-5C2 6.477 6.477 2 12 2s10 4.477 10 10v5a1 1 0 0 1-1 1h-3zM7.5 14a1.5 1.5 0 1 0 0-3 1.5 1.5 0 0 0 0 3zm9 0a1.5 1.5 0 1 0 0-3 1.5 1.5 0 0 0 0 3z"/>
    </g>
</svg>
